X: 1
T: Pols
O: Norway
R: pols
Z: 2009 John Chambers <jc:trillian.mit.edu>
S: handwritten notes from the 1970s
M: 3/16
L: 1/16
K: D
|: "D"faf dfd A2G | "D"F2A d2f a2f | "Em"gbg ege "A7"cAc |1,3 "D"d2A FAF D3 :|2,4 "D"d3 d6 :|
|: "D"{A}d2f a3 a2g | "Em"g2b b2g g2e | "A7"gbg ege "A7"cAc |1,3 "D"d2A FAF D3 :|2,4 "D"d3 d6 :|
